X:312
T:Quintessence of Dust
M:C|
L:1/8
C:© Paul Gitlitz 2011
R:reel
K:Bm
"Bm"FBdB "A"c2ae|"D"dfcd "Bm"B3A|"Em7"GAcd cBGB|"F#sus"[F8B8]|!
"A"e2dc a3f|e2dc"Bm"B4|"G"GBcd "A/E"c2de|"Bm"[d8f8]|!
|:"G"b2ga g2ef|"Em7"gfed [d4f4]|"Bm"FBdf "A"e2dc|1"Bm/F#"B2de fefa:|2"Bm"[F8B8]|!
|:"D"fdfa f3f|"Em"eceg e3e|"Bm"dcde f2e^g|"A"a8|!
"G"b2ga g2ef|"Em7"gfed f4|"Bm"FBdf "A"e2dc|1"Bm/F#m"B3B Bcde:|2"Bm"[F8B8]|]
